X:2254 
T:December is fairer than May 
C:Traditional
O:Isle of Man
Z:Clague colllection
B:Kiaull Vannin #254 
L:1/4
M:3/4 
Q:100 
K:G 
D|G G G/A/|B B B/c/|d g f/e/|d2 B|d/c/ B d|c B A|G2:| 
A|A G A|d2 e|E F G|G F {E}D|G G G|A/B/ c/B/ A/G/|!fermata!G !fermata!F {E}D| 
G G G/A/|B B B/c/|d g f/a/|g f e|d/c/ B/c/ d|c B A|G G A| 
B B A|B B c|d g f/a/|g f e|d c B/d/|c B A|G2|| 

